!!!OTL: 'Twas in the Town of Parsboro
!!!ONM: 148.
**kern
*clefG2
*k[b-e-]
*B-:
*M6/8
*MM80
{8f
=1
4f
8f
4B-
8d
=2
4f
8f
4B-
8f
=3
4f
8f
4B-
8c
=4
4.c
8r}
{8f
8f
=5
4f
8f
4B-
8d
=6
4f
8f
4B-
8c
=7
4c
8e-
4d
8c
=8
4.B-
8r}
{8f
8f
=9
4B-
8d
4f
8f
=10
8g
4f
4f
8f
=11
4f
8f
4B-
8d
=12
4.f
8r}
{8f
8f
=13
4B-
8d
4f
8f
=14
8g
4f
8r
8r
16c
16c
=15
4d
8B-
4B-
8A
=16
4.B-
4r}
==
*-
!!!CNT: Folksongs of Maritime Canada
!!!MRD: 1928///-1932///
!!!OCL: Helen Creighton
!!!YOR: Songs and Ballads from Nova Scotia
!!!PPR: J.M. Dent & Sons, Limited
!!!PPP: Toronto, Canada
!!!PDT: 1932///
!!!reprint: Dover Publications, 1992: ISBN 0-486-21703-5
!!!ENC1: Craig Stuart Sapp (music and bibliographic data)                       
!!!ENC2: Marcus Pearce (phrase markings and key designations)                   
!!!ENC3: Darrell Conklin (phrase markings and key designations)   
!!!END: 2002/04/10/
!!!EEV: 2004/06/05
!!!MPN: Dr. Perry Cochrane
!!!PPG: 324
!!!EFL: 150/152
!!!ARE: Canada; Nova Scotia
!!!verses: 8
!!!VTS: 899568651
